file/danone.svg

<svg clip-rule="evenodd" fill-rule="evenodd" stroke-linejoin="round" stroke-miterlimit="1.41421" viewBox="0 0 560 400" xmlns="http://www.w3.org/2000/svg"><g fill="#28539c" transform="matrix(.101629 0 0 .101629 152.964 72.9637)"><path d="m720.652 509.595-77.987-36.678 50.465 105.496-59.648 128.439 82.592-45.874 100.879 132.992-18.34-165.092 96.327-50.465-96.327-41.283 13.761-142.214zm295.298 1264.845c-376.216-101.76-650.021-444.82-650.021-853.198 0-488.454 396.019-884.486 884.501-884.486 488.49 0 884.47 396.032 884.47 884.486 0 235.768-92.25 449.968-242.6 608.528 0 0-61.58-79.87-79.94-107.35-18.37-27.54-45.85-30.96-41.27-68.83 5.52-45.74 41.27-91.75 41.27-91.75l9.17 36.68s257.54-270.69 229.35-454.072c-18.39-119.257-91.75-133.017-91.75-133.017s18.34-110.088-151.38-192.666c-169.72-82.553-298.15-68.792-298.15-68.792l73.41 55.044s-88.31-15.772-133.04-4.592l-36.68 9.183 47.57 22.956s-96.87 4.371-162.25 55.044c-51.05 39.571-55.04 64.226-55.04 64.226h36.7s-32.13 55.044-41.28 110.075c-9.17 55.044-5.16 69.959-5.16 69.959s0 25.797-46.45 60.205c-33.98 25.175-67.06 30.972-77.4 44.72-15.58 20.778 32.68 54.473 32.68 54.473s-3.43 24.654-25.81 52.174c-10.22 12.58 25.81 34.4 37.85 39.57l-29.24 24.08s-10.31 10.32 6.87 22.34c17.22 12.05 10.32 37.86 3.46 65.37-6.89 27.54-20.64 70.54 72.23 80.83 92.9 10.33 98.06 27.53 106.65 39.57 8.61 12.09 61.9 163.42 34.39 187.53-37.82 33.06-104.3 23.28-232.22 110.06-96.31 65.33-100.89 161.65-100.89 161.65z"/><path d="m1311.24 795.708s30.94 46.458 42.99 55.044c12.03 8.599 15.47 20.635 6.86 22.373-8.62 1.699-68.83 0-68.83 0l3.47-10.324s-5.16-13.748 0-27.522c5.16-13.761 18.92-18.923 18.92-18.923zm-1045.204 1318.132h133.537c101.89 0 122.966 96.42 122.966 160.05 0 72.07-25.706 175.97-125.522 175.97h-130.994v-336.02zm61.917 277.99h61.503c51.373 0 68.636-57.57 68.636-112.8 0-99.21-42.554-107.15-69.505-107.15h-60.646v219.95zm307.656 58.04h-66.548l107.844-336.02h72.851l106.586 336.02h-68.662l-19.39-69.26h-111.605zm37.924-127.3h77.079l-37.508-132.94h-.817zm451.447-208.73h58.98v336.03h-63.2l-123.398-239.61h-.856v239.61h-58.961v-336.03h66.545l120.04 234.01h.85zm310.23-11.54c44.12 0 160.23 19.55 160.23 180.46 0 160.87-116.1 180.48-160.23 180.48-44.1 0-160.2-19.61-160.2-180.48.01-160.91 116.1-180.46 160.2-180.46zm0 300.3c37.61 0 90.55-23.87 90.55-119.84 0-95.95-52.94-119.82-90.55-119.82-37.59 0-90.56 23.87-90.56 119.82 0 95.97 52.97 119.84 90.56 119.84zm441.96-288.76h58.97v336.03h-63.18l-123.4-239.61h-.82v239.61h-59v-336.03h66.55l120.02 234.01h.86zm349.6 59.43h-118.57v70.66h105.56v59.47h-105.56v87.04h125.76v59.43h-187.68v-336.03h180.49z"/></g></svg>

<?xml version="1.0" encoding="UTF-8" standalone="no"?>
<!DOCTYPE svg PUBLIC "-//W3C//DTD SVG 1.1//EN" "http://www.w3.org/Graphics/SVG/1.1/DTD/svg11.dtd">
<svg width="100%" height="100%" viewBox="0 0 560 400" version="1.1" xmlns="http://www.w3.org/2000/svg" xmlns:xlink="http://www.w3.org/1999/xlink" xml:space="preserve" xmlns:serif="http://www.serif.com/" style="fill-rule:evenodd;clip-rule:evenodd;stroke-linejoin:round;stroke-miterlimit:1.41421;">
    <g transform="matrix(0.101629,0,0,0.101629,152.964,72.9637)">
        <path d="M720.652,509.595L642.665,472.917L693.13,578.413L633.482,706.852L716.074,660.978L816.953,793.97L798.613,628.878L894.94,578.413L798.613,537.13L812.374,394.916L720.652,509.595ZM1015.95,1774.44C639.734,1672.68 365.929,1329.62 365.929,921.242C365.929,432.788 761.948,36.756 1250.43,36.756C1738.92,36.756 2134.9,432.788 2134.9,921.242C2134.9,1157.01 2042.65,1371.21 1892.3,1529.77C1892.3,1529.77 1830.72,1449.9 1812.36,1422.42C1793.99,1394.88 1766.51,1391.46 1771.09,1353.59C1776.61,1307.85 1812.36,1261.84 1812.36,1261.84L1821.53,1298.52C1821.53,1298.52 2079.07,1027.83 2050.88,844.448C2032.49,725.191 1959.13,711.431 1959.13,711.431C1959.13,711.431 1977.47,601.343 1807.75,518.765C1638.03,436.212 1509.6,449.973 1509.6,449.973L1583.01,505.017C1583.01,505.017 1494.7,489.245 1449.97,500.425L1413.29,509.608L1460.86,532.564C1460.86,532.564 1363.99,536.935 1298.61,587.608C1247.56,627.179 1243.57,651.834 1243.57,651.834L1280.27,651.834C1280.27,651.834 1248.14,706.878 1238.99,761.909C1229.82,816.953 1233.83,831.868 1233.83,831.868C1233.83,831.868 1233.83,857.665 1187.38,892.073C1153.4,917.248 1120.32,923.045 1109.98,936.793C1094.4,957.571 1142.66,991.266 1142.66,991.266C1142.66,991.266 1139.23,1015.92 1116.85,1043.44C1106.63,1056.02 1142.66,1077.84 1154.7,1083.01L1125.46,1107.09C1125.46,1107.09 1115.15,1117.41 1132.33,1129.43C1149.55,1141.48 1142.65,1167.29 1135.79,1194.8C1128.9,1222.34 1115.15,1265.34 1208.02,1275.63C1300.92,1285.96 1306.08,1303.16 1314.67,1315.2C1323.28,1327.29 1376.57,1478.62 1349.06,1502.73C1311.24,1535.79 1244.76,1526.01 1116.84,1612.79C1020.53,1678.12 1015.95,1774.44 1015.95,1774.44Z" style="fill:rgb(40,83,156);"/>
        <path d="M1311.24,795.708C1311.24,795.708 1342.18,842.166 1354.23,850.752C1366.26,859.351 1369.7,871.387 1361.09,873.125C1352.47,874.824 1292.26,873.125 1292.26,873.125L1295.73,862.801C1295.73,862.801 1290.57,849.053 1295.73,835.279C1300.89,821.518 1314.65,816.356 1314.65,816.356L1311.24,795.708ZM266.036,2113.84L399.573,2113.84C501.463,2113.84 522.539,2210.26 522.539,2273.89C522.539,2345.96 496.833,2449.86 397.017,2449.86L266.023,2449.86L266.023,2113.84L266.036,2113.84ZM327.953,2391.83L389.456,2391.83C440.829,2391.83 458.092,2334.26 458.092,2279.03C458.092,2179.82 415.538,2171.88 388.587,2171.88L327.941,2171.88L327.941,2391.83L327.953,2391.83ZM635.609,2449.87L569.061,2449.87L676.905,2113.85L749.756,2113.85L856.342,2449.87L787.68,2449.87L768.29,2380.61L656.685,2380.61L635.609,2449.87ZM673.533,2322.57L750.612,2322.57L713.104,2189.63L712.287,2189.63L673.533,2322.57ZM1124.98,2113.84L1183.96,2113.84L1183.96,2449.87L1120.76,2449.87L997.362,2210.26L996.506,2210.26L996.506,2449.87L937.545,2449.87L937.545,2113.84L1004.09,2113.84L1124.13,2347.85L1124.98,2347.85L1124.98,2113.84ZM1435.21,2102.3C1479.33,2102.3 1595.44,2121.85 1595.44,2282.76C1595.44,2443.63 1479.34,2463.24 1435.21,2463.24C1391.11,2463.24 1275.01,2443.63 1275.01,2282.76C1275.02,2121.85 1391.11,2102.3 1435.21,2102.3ZM1435.21,2402.6C1472.82,2402.6 1525.76,2378.73 1525.76,2282.76C1525.76,2186.81 1472.82,2162.94 1435.21,2162.94C1397.62,2162.94 1344.65,2186.81 1344.65,2282.76C1344.65,2378.73 1397.62,2402.6 1435.21,2402.6ZM1877.17,2113.84L1936.14,2113.84L1936.14,2449.87L1872.96,2449.87L1749.56,2210.26L1748.74,2210.26L1748.74,2449.87L1689.74,2449.87L1689.74,2113.84L1756.29,2113.84L1876.31,2347.85L1877.17,2347.85L1877.17,2113.84ZM2226.77,2173.27L2108.2,2173.27L2108.2,2243.93L2213.76,2243.93L2213.76,2303.4L2108.2,2303.4L2108.2,2390.44L2233.96,2390.44L2233.96,2449.87L2046.28,2449.87L2046.28,2113.84L2226.77,2113.84L2226.77,2173.27Z" style="fill:rgb(40,83,156);"/>
    </g>
</svg>
